X:1
T:Title
%%score ( 1 2 ) { ( 3 5 ) | 4 }
L:1/8
Q:1/4=95
M:4/4
K:Bb
V:1 treble nm="Drawbar Organ, Soprano"
V:2 treble 
V:3 bass nm="Church Organ, Bass"
V:5 bass 
V:4 bass 
V:1
 [DF][DF][Fd][Fd] [Fc][Fc][FB][FB] | DD z2 BB B2 | [DF][DF] [DB]2- [DB][DB][Fd][Fd] | %3
w: By~Harold~Fiske~Sayles * * * * * * *|||
 [FB][FB] [Fc]6 | [DF][DF][Fd][Fd] [Fc][Fc][FB][FB] | DD z2 BB B2 | %6
w: |||
 [DF][DF] [DB]2- [DB][DB][Fd][Fd] | [Ec][Ec] [DB]6 | z4 [Fc][Fc] [Fc]2 | z4 [Fc][Bd] [Ae]2 | %10
w: ||||
 FB d2- [Fd-]2 [Fd][Fc] | [=EB][EG]c-[Fc-] [Fc-][Fc-] [Fc]2 | z4 [DB][DB] [GB]2 | %13
w: |||
 z4 [FB][Fc] [Bd]2 | FB d2- [Bd-]2 [Bd][Gc] | z2 B6- | B6 z2 |] %17
w: ||||
V:2
 x8 | z2 F6 | x8 | x8 | x8 | z2 F6 | x8 | x8 | x8 | x8 | z2 F2 z4 | z2 .F2 z4 | x8 | x8 | %14
 z2 B2 z4 | [FB][FA]FG F=E F2- | F6 z2 |] %17
V:3
 B,B,B,B, A,A,B,B, | z4[K:treble] DD D2 | B,B,[K:bass] F,2- F,F,B,B, | B,B, A,6 | %4
 B,B,B,B, A,A,B,B, | z4[K:treble] DD D2 | DC[K:bass] B,2- B,B,B,B, | A,F, F,6 | D,D, z2 A,A, A,2 | %9
 A,G, z2 A,B, C2 | z2 B,2 B,2 B,C | CB,A,A, A,A, A,2 | D,F, z2 B,B, D2 | F,[K:treble]A, z2 DE F2 | %14
 z2 F2 F2 FE | DCDE D_D =D2- | D6 z2 |] %17
V:4
 B,,B,,B,,B,, C,C,D,D, | z4 B,,B,, B,,2 | B,,B,, B,,2- B,,B,,B,,B,, | D,D, F,6 | %4
 B,,B,,B,,B,, C,C,D,D, | z4 B,,B,, B,,2 | B,A, G,2- G,G,D,D, | .F,2 B,,6 | z8 | z8 | %10
 z2 B,,2 B,,2 z A, | G,G,F,F, F,F, F,2 | z8 | z8 | z2 B,2 B,2 B,E, | F,F, B,,6- | B,,6 z2 |] %17
V:5
 x8 | x4[K:treble] x4 | x2[K:bass] x6 | x8 | x8 | x4[K:treble] x4 | x2[K:bass] x6 | x8 | z2 F,6 | %9
 z2 F,6 | x8 | x8 | z2 G,6 | z2[K:treble] B,6 | x8 | x8 | x8 |] %17

